img/icon/menu-icon/contact.svg

<svg width="24" height="24" fill="none" xmlns="http://www.w3.org/2000/svg"><path d="M10.667 21L12 19.667m0 0l-1.333-1.333M12 19.667c-5.523 0-10-1.741-10-3.889 0-.64.408-1.24 1.111-1.772m17.778 0c.703.532 1.111 1.132 1.111 1.772 0 1.636-2.6 3.033-6.278 3.608M9.6 3v2.16c0 .397.269.72.6.72h3.6c.331 0 .6-.323.6-.72V3M6 15V5.4A2.4 2.4 0 0 1 8.4 3h7.2A2.4 2.4 0 0 1 18 5.4V15" stroke="#848E9F" stroke-width="1.5" stroke-linecap="round" stroke-linejoin="round"/></svg>

<svg width="24" height="24" viewBox="0 0 24 24" fill="none" xmlns="http://www.w3.org/2000/svg">
<path d="M10.667 21L12 19.667M12 19.667L10.667 18.334M12 19.667C6.477 19.667 2 17.926 2 15.778C2 15.138 2.408 14.538 3.111 14.006M20.889 14.006C21.592 14.538 22 15.138 22 15.778C22 17.414 19.4 18.811 15.722 19.386M9.6 3V5.16C9.6 5.557 9.869 5.88 10.2 5.88H13.8C14.131 5.88 14.4 5.557 14.4 5.16V3M6 15V5.4C6 4.074 7.074 3 8.4 3H15.6C16.926 3 18 4.074 18 5.4V15" stroke="#848E9F" stroke-width="1.5" stroke-linecap="round" stroke-linejoin="round"/>
</svg>
